!! 00049] TT[KA
!! NN
!!!OTL: Sanshi li mingshan ershi li shui
!!!ARE: Asia, China, Shanxi, Hequ
!! Ethnic Group: Han
!! I, 329, 1)
!!!SCT: C0092
!!!YEM: Copyright 1995, estate of Helmut Schaffrath.
**kern
*ICvox
*Ivox
*M2/4
*k[b-e-]
*B-:
{8ccc
8ccc
[4ggg
=1
2ggg]}
=2
{8fff
16ggg
16fff
8eee-
16ddd
16ccc
=3
8bb-
8gg
8ccc
16fff
16bb-
=4
2gg}
=5
{8ccc
8ccc
[4ggg
=6
2ggg]}
=7
{8fff
16ggg
16fff
8eee-
16ddd
16ccc
=8
8bb-
8gg
8bb-
8ggg
=9
2ccc}
==
!!!AGN: Shange, Shanqu. Biaoda aiqing
!! Hier fehlen die Verzierungen. Die Notation wird als "nicht sehr
!!    genau" bezeichnet.
!!!ONB: ESAC (Essen Associative Code) Database: CHINA
!!!AMT: simple duple
!!!AIN: vox
!!!EED: Helmut Schaffrath
!!!EEV: 1.0
*-
!!!ONB: Tied note syntax fixed by Craig Sapp, 2004/05/03/
